src/images/svg/academy/academy-logo.svg

<svg width="140" height="21" viewBox="0 0 140 21" fill="none" xmlns="http://www.w3.org/2000/svg">
<path d="M10.9023 0.51123H14.3742L20 20.4887H15.2623L14.186 16.2562H6.78331L4.63026 20.4887H0L10.9023 0.51123ZM11.7365 6.32378L8.58692 12.5317H13.2437L11.7365 6.32378Z" fill="white"/>
<path d="M36.3669 5.91943C36.0123 5.42442 35.5363 5.02699 34.9835 4.76465C34.3451 4.48025 33.65 4.34272 32.9503 4.36237C32.1675 4.35972 31.3925 4.51484 30.6725 4.81827C29.9527 5.12147 29.296 5.55399 28.7353 6.09401C28.1512 6.65996 27.6657 7.3177 27.2985 8.04057C26.905 8.80661 26.6439 9.63244 26.5258 10.4839C26.396 11.3007 26.4192 12.1342 26.5937 12.9429C26.7446 13.6398 27.0398 14.2981 27.4609 14.8762C27.864 15.4192 28.3945 15.857 29.0066 16.1519C29.653 16.4612 30.3633 16.6173 31.0812 16.6078C31.9076 16.617 32.7242 16.433 33.4653 16.0707C34.1918 15.71 34.8301 15.197 35.3361 14.5673L38.4816 17.1739C37.5526 18.2674 36.3715 19.1239 35.0381 19.6707C33.7848 20.1943 32.4395 20.4682 31.0792 20.4763C29.6957 20.4966 28.3207 20.26 27.0254 19.7784C25.8823 19.3529 24.8562 18.6676 24.0293 17.7778C23.2146 16.8757 22.6289 15.7941 22.3209 14.6229C21.9713 13.2723 21.9065 11.8648 22.1306 10.4883C22.3243 9.03793 22.7887 7.63592 23.5 6.35368C24.834 3.93268 27.0347 2.09359 29.6691 1.1981C31.0377 0.727698 32.4774 0.491693 33.9262 0.500223C34.4854 0.501953 35.0434 0.551309 35.594 0.647758C36.1646 0.746644 36.7235 0.904058 37.2613 1.11744C37.8081 1.33526 38.3232 1.6242 38.7931 1.97663C39.2744 2.33736 39.6836 2.78364 40 3.2927L36.3669 5.91943Z" fill="white"/>
<path d="M48.9021 0.5H52.3742L58 20.4775H53.2626L52.1859 16.245H44.7836L42.6304 20.4775H38L48.9021 0.5ZM49.7369 6.31255L46.5871 12.5205H51.2436L49.7369 6.31255Z" fill="white"/>
<path d="M62.5208 0.523006H68.477C69.8371 0.5119 71.1928 0.692 72.5118 1.05898C73.6751 1.37012 74.7619 1.96261 75.6943 2.79401C76.5813 3.61505 77.2428 4.69556 77.6033 5.91264C78.0171 7.42034 78.1087 9.01409 77.8709 10.5678C77.6992 12.0847 77.2347 13.5427 76.5089 14.8426C75.824 16.0515 74.9378 17.1049 73.8976 17.9468C72.8442 18.7935 71.6695 19.4372 70.4228 19.8507C69.1483 20.2826 67.8226 20.5014 66.4897 20.5H60L62.5208 0.523006ZM64.4792 16.4371H66.5416C67.4147 16.4426 68.2856 16.3385 69.1378 16.127C69.9153 15.9381 70.6537 15.5886 71.3144 15.0969C71.9629 14.6031 72.5058 13.958 72.9054 13.2068C73.3606 12.3242 73.6549 11.351 73.7713 10.3425C73.8982 9.48864 73.8414 8.61363 73.6053 7.78878C73.3917 7.09012 73.0086 6.47027 72.4978 5.9974C71.9559 5.50788 71.3288 5.14755 70.6555 4.93891C69.8977 4.6979 69.1126 4.57902 68.3241 4.5859H65.9824L64.4792 16.4371Z" fill="white"/>
<path d="M82.7311 0.522522H96L95.4482 4.58552H86.4828L85.9589 8.30999H94.4269L93.8753 12.374H85.407L84.8554 16.437H94.3173L93.7656 20.5H80L82.7311 0.522522Z" fill="white"/>
<path d="M99.6432 0.522522H105.944L108.56 13.558H108.613L114.726 0.522522H121L118.356 20.499H114.192L116.221 5.17812H116.168L109.175 20.499H105.996L103.247 5.17916H103.194L101.164 20.5H97L99.6432 0.522522Z" fill="white"/>
<path d="M127.467 11.9786L122 0.522522H127.076L130.032 7.99986L135.16 0.522522H140L131.549 11.9786L130.45 20.5H126.369L127.467 11.9786Z" fill="white"/>
</svg>

<svg width="140" height="21" fill="none" xmlns="http://www.w3.org/2000/svg"><path d="M10.902.511h3.472L20 20.49h-4.738l-1.076-4.233H6.783L4.63 20.49H0L10.902.51zm.835 5.813l-3.15 6.208h4.657l-1.508-6.208zM36.367 5.92a3.599 3.599 0 00-1.383-1.155 4.675 4.675 0 00-2.034-.403 5.815 5.815 0 00-2.278.456 6.34 6.34 0 00-1.937 1.276A7.339 7.339 0 0027.3 8.041a7.646 7.646 0 00-.773 2.443c-.13.817-.107 1.65.068 2.459.15.697.446 1.355.867 1.933.403.543.934.981 1.546 1.276.646.31 1.356.465 2.074.456a5.294 5.294 0 002.384-.537 5.586 5.586 0 001.871-1.504l3.146 2.607a8.996 8.996 0 01-3.444 2.497 10.433 10.433 0 01-3.959.805 11.164 11.164 0 01-4.054-.698 7.807 7.807 0 01-2.996-2 7.586 7.586 0 01-1.708-3.155 10.051 10.051 0 01-.19-4.135c.193-1.45.658-2.852 1.369-4.134a11.125 11.125 0 016.17-5.156A12.866 12.866 0 0133.925.5c.56.002 1.117.051 1.668.148a8.42 8.42 0 011.667.47 6.662 6.662 0 011.532.859c.481.36.89.807 1.207 1.316l-3.633 2.626zM48.902.5h3.472L58 20.477h-4.737l-1.077-4.232h-7.402l-2.154 4.232H38L48.902.5zm.835 5.813l-3.15 6.208h4.657l-1.507-6.208zM62.52.523h5.957c1.36-.011 2.716.169 4.035.536a7.826 7.826 0 013.182 1.735 6.918 6.918 0 011.91 3.119c.413 1.507.505 3.101.267 4.655a11.41 11.41 0 01-1.362 4.275 10.888 10.888 0 01-2.611 3.104 11.156 11.156 0 01-3.475 1.904c-1.275.432-2.6.65-3.933.649H60L62.52.523zm1.96 15.914h2.062c.873.006 1.744-.099 2.596-.31a6.032 6.032 0 002.176-1.03 5.778 5.778 0 001.591-1.89c.456-.883.75-1.856.866-2.865a6.064 6.064 0 00-.166-2.553 4.049 4.049 0 00-1.107-1.792 4.927 4.927 0 00-1.843-1.058 7.47 7.47 0 00-2.33-.353h-2.343L64.48 16.437zM82.731.523H96l-.552 4.063h-8.965l-.524 3.724h8.468l-.552 4.064h-8.468l-.552 4.063h9.462l-.551 4.063H80L82.731.523zM99.643.523h6.301l2.616 13.035h.053L114.726.523H121l-2.644 19.976h-4.164l2.029-15.32h-.053l-6.993 15.32h-3.179l-2.749-15.32h-.053l-2.03 15.321H97L99.643.523zM127.467 11.979L122 .523h5.076L130.032 8 135.16.523H140l-8.451 11.456-1.099 8.521h-4.081l1.098-8.521z" fill="#fff"/></svg>
